svg/u1f345.svg

<svg viewBox="0 0 128 128" xmlns="http://www.w3.org/2000/svg">
  <path d="M119.77,69.38c0,0,1.71-13.05-1.4-18.95S105.66,31.5,85.75,29.15c-10.56-1.24-17.71,0.16-24.23,0.93 c-4.13,0.49-11.82-2.05-25.63,1.09C25.65,33.5,10.11,42.51,5.06,61.93C2.4,72.16,3.41,83.21,7.94,92.52 c8.7,17.86,24.85,22.21,24.85,22.21l32.46,2.64l39.3-16.62L119.77,69.38z" fill="#FF2A23"/>
  <path d="M82.03,119.08c20.66-4.04,38.52-22.52,41.63-42.09c2.91-18.31-7.79-30.58-7.79-30.58 s1.22,9.77-1.06,20.18c-2.45,11.14-9.54,29.71-32,40.23c-27.57,12.91-57.77,4.4-57.77,4.4S45.56,126.21,82.03,119.08z" fill="#DC0D27"/>
  <path d="M24.92,52.76c-5.49-1.42-12.34,2.73-13.33,14.88c-0.91,11.13,5.12,24.54,11.03,22.94 c5.02-1.36,0.19-10.66,1.98-18.29C26.41,64.66,33.29,54.93,24.92,52.76z" fill="#FED3B0"/>
  <path d="M31.87,46.05c-0.78,1.01,1.03,5.45,10.22,5.39c9.18-0.06,10.72-2.83,14.81-1.59 c4.09,1.24,7.28,6.16,11.8,8.85c6.32,3.76,15.44,2.8,15.38,1.13c-0.06-1.68-2.29-0.82-4.21-3.17c-1.92-2.36-5.32-8.59-5.32-8.59 s0.95-2.92,2.96-2.81c4.64,0.25,9.8-0.67,12.64-2.45c3.4-2.12,4.68-5.39,4.06-6.14c-0.62-0.74-2.55,1.26-3.6,1.07 s-7.88-0.06-7.88-0.06l-8.25-1.34c0,0,1.13-4.83,3.36-7.31c2.23-2.48,5.73-5.89,5.66-6.32s-2.88-0.05-2.88-0.05l-8.69,3.97l-6.08,8 l-11.54,1.49L43.2,28.67c0,0-6.37-5.14-6.66-5.02c-1.61,0.66,0.84,3.11,2.69,6.07c1.6,2.57,1.93,3.86,4.09,5.65 c2.11,1.74,5.65,3.47,5.65,3.47l-2.54,4.59c0,0-8.19,3.23-9.62,3.23C35.39,46.67,32.3,45.5,31.87,46.05z" fill="#BDCF44"/>
  <path d="M57.51,43.28c3.35,0.25,5.77,4.7,8.79,7.73c4.41,4.41,7.86,6.71,11.57,7.58 c1.86,0.43,6.13,1.14,6.13,1.14s0.62-0.43-1.49-1.61c-2.11-1.18-3.38-3.44-3.69-4.49c-0.31-1.05-1.28-4.5-3.32-7.36 s-4.36-4.07-3.62-5.37c0.74-1.3,7.14,0.9,13.3-0.09c8.13-1.3,9.37-3.91,9-4.22c-0.37-0.31-5.4,1.18-7.94,0.62 c-2.54-0.56-4.72-2.3-8.56-2.3c-2.62,0-5.18,0.95-5.87-0.48c-0.58-1.2,1.6-5.21,3.26-6.72c4.03-3.66,8.38-4.53,8.38-5.03 c0-1.03-7.07-1.61-11.97,2.3c-4.88,3.89-3.96,9-10.3,9c-2.11,0-2.92-0.5-2.92-0.5s-2.83-2.33-6.61-4.38 c-3.78-2.05-6.63-1.14-8.81-2.19c-2.17-1.05-6.02-3.77-6.39-3.22s2.89,4.27,6.99,7.31s8.69,4.59,7.38,5.83 c-1.3,1.24-3.47,2.05-5.52,3.6c-2.05,1.55-3.85,3.78-6.33,4.59c-2.48,0.81-6.56,0.24-7.12,0.92c-0.56,0.68,4.32,3.03,11.95,1.61 C51.41,46.13,51.43,42.83,57.51,43.28z" fill="#94A61D"/>
  <path d="M65.12,4.94c-1.67-0.08-3.78,1.24-3.78,1.24s-3.06,3.73-4.27,12.99c-0.56,4.28,0.05,10.03-0.07,13.2 c-0.12,3.16-0.81,4.34-0.62,5.96c0.19,1.61,1.88,3.43,5.79,3.39c3.14-0.03,4.76-2.46,4.7-3.33c-0.06-0.87-2.75-9.74-1.99-17.56 c0.71-7.27,3.36-12.29,3.47-13.34C68.41,6.92,67.66,5.06,65.12,4.94z" fill="#728035"/>
</svg>

<svg viewBox="0 0 128 128" xmlns="http://www.w3.org/2000/svg">
  <defs/>
  <path d="M119.77,69.38 C119.77,69.38 121.48,56.33 118.37,50.43 C115.26,44.53 105.66,31.5 85.75,29.15 C75.19,27.91 68.04,29.31 61.52,30.08 C57.39,30.57 49.7,28.03 35.89,31.17 C25.65,33.5 10.11,42.51 5.06,61.93 C2.4,72.16 3.41,83.21 7.94,92.52 C16.64,110.38 32.79,114.73 32.79,114.73 L65.25,117.37 L104.55,100.75 L119.77,69.38 Z" fill="#FF2A23"/>
  <path d="M82.03,119.08 C102.69,115.04 120.55,96.56 123.66,76.99 C126.57,58.68 115.87,46.41 115.87,46.41 C115.87,46.41 117.09,56.18 114.81,66.59 C112.36,77.73 105.27,96.3 82.81,106.82 C55.24,119.73 25.04,111.22 25.04,111.22 C25.04,111.22 45.56,126.21 82.03,119.08 Z" fill="#DC0D27"/>
  <path d="M24.92,52.76 C19.43,51.34 12.58,55.49 11.59,67.64 C10.68,78.77 16.71,92.18 22.62,90.58 C27.64,89.22 22.81,79.92 24.6,72.29 C26.41,64.66 33.29,54.93 24.92,52.76 Z" fill="#FED3B0"/>
  <path d="M31.87,46.05 C31.09,47.06 32.9,51.5 42.09,51.44 C51.27,51.38 52.81,48.61 56.9,49.85 C60.99,51.09 64.18,56.01 68.7,58.7 C75.02,62.46 84.14,61.5 84.08,59.83 C84.02,58.15 81.79,59.01 79.87,56.66 C77.95,54.3 74.55,48.07 74.55,48.07 C74.55,48.07 75.5,45.15 77.51,45.26 C82.15,45.51 87.31,44.59 90.15,42.81 C93.55,40.69 94.83,37.42 94.21,36.67 C93.59,35.93 91.66,37.93 90.61,37.74 C89.56,37.55 82.73,37.68 82.73,37.68 L74.48,36.34 C74.48,36.34 75.61,31.51 77.84,29.03 C80.07,26.55 83.57,23.14 83.5,22.71 C83.43,22.28 80.62,22.66 80.62,22.66 L71.93,26.63 L65.85,34.63 L54.31,36.12 L43.2,28.67 C43.2,28.67 36.83,23.53 36.54,23.65 C34.93,24.31 37.38,26.76 39.23,29.72 C40.83,32.29 41.16,33.58 43.32,35.37 C45.43,37.11 48.97,38.84 48.97,38.84 L46.43,43.43 C46.43,43.43 38.24,46.66 36.81,46.66 C35.39,46.67 32.3,45.5 31.87,46.05 Z" fill="#BDCF44"/>
  <path d="M57.51,43.28 C60.86,43.53 63.28,47.98 66.3,51.01 C70.71,55.42 74.16,57.72 77.87,58.59 C79.73,59.02 84,59.73 84,59.73 C84,59.73 84.62,59.3 82.51,58.12 C80.4,56.94 79.13,54.68 78.82,53.63 C78.51,52.58 77.54,49.13 75.5,46.27 C73.46,43.41 71.14,42.2 71.88,40.9 C72.62,39.6 79.02,41.8 85.18,40.81 C93.31,39.51 94.55,36.9 94.18,36.59 C93.81,36.28 88.78,37.77 86.24,37.21 C83.7,36.65 81.52,34.91 77.68,34.91 C75.06,34.91 72.5,35.86 71.81,34.43 C71.23,33.23 73.41,29.22 75.07,27.71 C79.1,24.05 83.45,23.18 83.45,22.68 C83.45,21.65 76.38,21.07 71.48,24.98 C66.6,28.87 67.52,33.98 61.18,33.98 C59.07,33.98 58.26,33.48 58.26,33.48 C58.26,33.48 55.43,31.15 51.65,29.1 C47.87,27.05 45.02,27.96 42.84,26.91 C40.67,25.86 36.82,23.14 36.45,23.69 C36.08,24.24 39.34,27.96 43.44,31 C47.54,34.04 52.13,35.59 50.82,36.83 C49.52,38.07 47.35,38.88 45.3,40.43 C43.25,41.98 41.45,44.21 38.97,45.02 C36.49,45.83 32.41,45.26 31.85,45.94 C31.29,46.62 36.17,48.97 43.8,47.55 C51.41,46.13 51.43,42.83 57.51,43.28 Z" fill="#94A61D"/>
  <path d="M65.12,4.94 C63.45,4.86 61.34,6.18 61.34,6.18 C61.34,6.18 58.28,9.91 57.07,19.17 C56.51,23.45 57.12,29.2 57,32.37 C56.88,35.53 56.19,36.71 56.38,38.33 C56.57,39.94 58.26,41.76 62.17,41.72 C65.31,41.69 66.93,39.26 66.87,38.39 C66.81,37.52 64.12,28.65 64.88,20.83 C65.59,13.56 68.24,8.54 68.35,7.49 C68.41,6.92 67.66,5.06 65.12,4.94 Z" fill="#728035"/>
</svg>
